X:1
T: The Merry Plough Boy
N:
C:
S:
A:
O:
R:
M:4/4
K:G
I:speed 200
%W:
% voice 1 (1 lines, 17 notes)
K:G
M:4/4
L:1/16
B2 c2 |d4 d4 e4 B4 |d4 A8 A2 B2 |c4 c4 d4 A4 |B12 c2 B2 |
%W:
% voice 1 (1 lines, 15 notes)
A4 d4 f4 f2 f2 |e4 d4 A4 d2 d2 |d4 A4 c4 B4 |G12 |
%W:
% voice 1 (1 lines, 21 notes)
B2 c2 |d6 d2 e2 e2 B2 c2 |d4 A2 A2 A4 A2 B2 |c4 c4 d4 A4 |B12 c2 B2 |
%W:
% voice 1 (1 lines, 15 notes)
A4 d4 f4 f2 f2 |e4 d4 A4 d2 d2 |d4 A4 c4 B4 |G12 |
